X:3
T:Alma Redemptoris Mater
T:Altus part
C:Tom\'as Luis de Victoria (1548-1611)
O:Florigelium sacrarum cantionum, Petri Phalesij, 1609
L:1/8
M:4/2
%%measurenb 0
%%squarebreve
%%scale 0.75
%%newpage 1
%%continueall true
%%footer "$T (Altus)	Page $P	Gumbleton Music, 2011\n"
K:F
C4 D3 EFG A3 B c2 | B3 A G2 E2  F4 G4-|G4 z4  z8 |
w:Al ------------ ma_ 
z8 z2 G4 G2 | C4 D4  E4 F3 G | ABcA B6 A2 G4 |
w:    Re-dem-pto-ris Ma ---------
%13
  A4 z2 F4 G3 G A2-|A2 B3 AGFED G3 F F2-|F2 E2 F4 z8|
w:ter, quae per-vi-a_ coe ---------- li,
%19
F8  G3 G A4 | B6 A2 G4 F2 F2 | G2 A2 B4  A4 z2 E2 |
w:quae per-vi-a coe --li por - ta ma-nes, por-
%25
  F2 G2 A6 G2 F2 D2 |G4 z4  z8 | z2 F2 G2 A2  B4 A4|
w:ta ma ----nes, por - ta ma-nes.
%31
A4 G2 A2  F3 E/F/ G2 A2 | G4 z4  c8 |=B4 c4 A6 GF |
w:Et stel-la ma ----ris, et stel-la ma --
%37
G4 F4  z4 c4-|c4 =B4  c4 A4 |G4 z2 A2  B4 B2 A2 |
w:- ris, et_ stel-la ma-ris suc-cur-re ca-
%43
G2 FE F4  G2 D2 F4 | G2 G2 A4  A2 G2 F4 |         E2 C3 C D4 E3 E F2-|
w:den ---ti, suc-cur-re, suc-cur-re ca-den-ti. Sur-ge-re, sur-ge-re,
%49
 F2 G4  G2 A2 A2  B4 | A2 FGAF   G3 F F4 E2 | F2  C2  D3 EF4 F4 |
w:_ sur-ge-re qui cu-rat, po --- -  - -  pu-  lo, qui cu --  rat,
%55
G6 G2  A8||[Q:"Secunda pars"] z4 F6 E2 D2 C2 | DE F4 E2  F4 z4 |
w:po-pu-lo:                      Tu quae ge-nu-i ---sti,
%61
Z | F4 z2 G2  FGAF G2 F2 | G2 A2 G4  F2 A2 A4 |
w:tu quae ge ----nu-i -- sti, na-tu-
%67
F4 A4  B3 A G2 F2 | E2 F4 E2  F2 c2 c2 A2-|A2 F2 A4  B2 F2 B4 |
w:ra mi-ran ------te, na-tu-ra_ mi-ran-te, mi-ran-
%73
A2 GF G4  A4 z4 | F8  G4 A4 | B4 G2 G2  A2 c4 =B2 |
w:----te, tu-um san - ctum Ge-ni-to - 
%79
   c4  A2 A4 G2 F4 | D4 G8 A4-|A4 A8 B4-|
w:rem, Ge-ni -  to   -  rem, vir - go pri-
%85
B4 A2 F4 G2 A4-| A2 GF E2 F4 E2 F4 |z4 z2 B,2  D2 F4 ED |
w:- us ac po-ste -  -- -  - ri-us,        ac po-ste --
%91
E2 E2 F4-F8 | z2 G4 G2  A4 F2 F2 |G3 FED E2  F2 A3 A A2 |
w:- ri-us,_ Ga-bri-e-lis ab 0 ---- re, Ga-bri-e-
%97
B2 B2 G4  A8-|A4 z4  z2 B4 AG | A2 GF G2 A2  B2 B,2 D2 E2|
w:lis ab o-re._ Su -------mens il - lud
%103
F8 F4 z2 G2 | G2 B4 AG  A2 A2 B3 A |G2 F2 B3 A G2 F2 E2 F2-|F2 E2 F2 A2 \
w:A-ve, Su-mens il ---lud A -- ve, A -------ve, pec-
%110
G4   E4 | F4 z2 A4 G2 F2 E2 | D4 z4  z2 A2 G4 | E4 ^F4  G4 E4 |
w:ca-tao-rum    mi- se-re - re, pec-ca-to-rum mi-se-
%117
  F3 GAF G3 F F4 E2 |F16-|F16|]
w:re --- -  - -  -   re._

